!!!!SEGMENT: pl-wtm--r-2008--002_smietanski-emil-wladyslaw--trois-mazourkas-op-2.krn
!!!cenid: 18xx:1987
!!!COM: Śmietański, Emil Władysław
!!!COM-rismID: pe50041781
!!!CDT: 1845-1886
!!!CNT: Polish
!!!GTL: Trois Mazourkas op. 2
!!!OTL: [Nr 2]
!!!PDT: 1865
!!!AGN: Secular; Mazurka
!!!SMS-siglum: PL-Wtm
!!!SMS-shelfmark: R 2008
!!!SMS-shelfwork: 002 G
!!!SMS-variant:
!!!SMS-altvar:
!!!NIFC-rismSourceID: 1001112201
!!!NIFC-rismChildID: 1001112203
!!!NIFC-islandoraID: pl-wtm:29379
!!!URL-pdf-islandora: https://repozytorium.nifc.pl/islandora/object/pl-wtm%3A29379/datastream/PDF/view
!!!URL-scan: https://polish.musicsources.pl/pl/lokalizacje/galeria/rekopisy/6501 @EN{Scan on Polish Music Sources Website} @PL{Skany w portalu Dziedzictwo Muzyki Polskiej w otwartym dostępie}
!!!ONB-nifc:
!!!AIN: 2 forte
!!!key:
**kern	**kern	**dynam
*part2	*part1	*part1
*staff2	*staff1	*
*Iforte	*Iforte	*
*I"Fortepian	*I"Fortepian	*
*I'pf	*I'pf	*
*clefF4	*clefG2	*
*k[b-]	*k[b-]	*
*F:	*F:	*
*M3/4	*M3/4	*
=1	=1	=1
!LO:TX:a:t=↓	!LO:TX:a:i:t=No. 2.	!
4A 4C 4FF/	4a\	.
!	!LO:TX:b:i:t=dolce.	!
4a 4c\	4ff 4cc\	.
4b- 4d\	4ff 4dd\	.
=2	=2	=2
4a 4c\	8.ffL 8.ccM</	.
.	16bn/Jk	.
4a 4c\	4ff 4cc\	.
4f 4A\	4a\	.
=3	=3	=3
4F 4AA 4DD/	4f\	.
4f 4A\	4dd 4a\	.
4g 4B-\	4dd 4b-\	.
=4	=4	=4
4f 4A\	8.ddL 8.am</	.
.	16g#X/Jk	.
4f 4A\	4dd 4a/	.
4d 4F\	4f/	.
=5	=5	=5
4BB-\	8gM</L	.
.	8f#X/J	<
4f 4d 4G\	8g/L	.
.	8a/	.
4e 4B- 4G 4C\	8b-/	.
.	8bn/J	.
=6	=6	=6
4AA\	8bn\L	.
.	8cc\J	.
4f 4c 4F;\	4.ff;\	[
4r	.	.
.	8g 8f\	.
=7	=7	=7
4BB-\	4.ff 4.dd-X\	p
4f 4d-X 4G 4F\	.	.
.	8g 8f\	.
4e 4B- 4G 4C\	8eeL 8cc\	.
.	8e\J	.
=8	=8	=8
4A 4C 4FF/	8.ffL 8.cc 8.fM</	.
.	16e/Jk	.
4a 4c\	8f/	.
.	8r	.
4r	4c/	.
!!LO:LB:g=original
=9	=9	=9
4A 4C 4FF/	8a'^^</	.
.	8r	ff
4a 4c\	4ff 4cc\	.
4b- 4d\	4ff 4dd\	.
=10	=10	=10
4FFF/	8.ffL 8.ccM</	.
.	16bn/Jk	.
4a 4c\	4ff 4cc/	.
4f 4A\	(4a/	.
=11	=11	=11
4F 4AA 4DD/	8f'^^</)	.
.	8r	.
4f 4A\	4dd 4a\	.
4g 4B-\	4dd 4b-\	.
=12	=12	=12
4DDD/	8.ddL 8.am</	.
.	16g#X/Jk	.
4f 4A\	4dd 4a/	.
4d 4F\	4f/	.
=13	=13	=13
4BB-\	8gM\L	.
.	8f#X\J	.
4f 4d 4G\	8g\L	<
.	8a\J	.
4e 4B- 4G 4C\	8b-\L	.
.	8bn\J	.
=14	=14	=14
4AA\	8bn\L	.
.	8cc\J	.
4f 4c 4F;\	4.aa;\	[
4r	.	.
.	8g 8f\	.
=15	=15	=15
4BBB-/	4.ff 4.dd-X\	p
4d-X 4G 4F 4BB-\	.	.
.	8g 8f\	.
4e 4B- 4E 4C\	8ccL 8g\	.
.	8e\J	.
=16	=16	=16
4A 4C 4FF\	8.ccL 8.fM</	.
.	16e/Jk	.
4c 4A\	8f/	.
.	8r	.
4r	4a/	.
!!LO:LB:g=original
=17||	=17||	=17||
4F: 4D: 4AA: 4DD:/	4dd: 4a: 4f: 4d: 4A:\	f
.	32qqb-/	.
4f 4A\	8.a\L	.
.	16g#X\Jk	.
4d 4F\	4a\	.
=18	=18	=18
4F: 4D: 4AA: 4DD:/	4dd: 4a: 4f: 4d: 4A:\	.
.	32qqb-/	.
4f 4A\	8.a\L	.
.	16g#X\Jk	.
4d 4F\	4a\	.
=19	=19	=19
4AA 4DD/	8ffL 8a 8f\	>
.	8ee\J	.
4d 4A 4F\	8ddL 8a 8f\	.
.	8cc\J	.
4G#X 4EE/	8bnL 8e 8d\	.
.	8cc\J	]
=20	=20	=20
.	32qqbn/	<
4AA 4AAA/	8.aL 8.e 8.c\	.
.	16g#X\Jk	.
4A 4E\	8a\	.
.	8r	.
4c#X 4G\	4a 4e 4A/	[[
=21	=21	=21
4F: 4D: 4AA: 4DD:/	4dd: 4a: 4f: 4d: 4A:\	.
.	32qqb-/	.
4f 4A\	8.a\L	.
.	16g#X\Jk	.
4d 4F\	4a\	.
=22	=22	=22
4F: 4D: 4AA: 4DD:/	4dd 4a 4f 4d 4A\	.
.	32qqb-/	.
4f 4A\	8.a\L	.
.	16g#X\Jk	.
4d 4F\	4a\	.
=23	=23	=23
4AA 4DD/	8ffL 8a 8f\	.
.	8ee\J	.
4d 4A 4F\	8ddL 8a 8f\	.
.	8cc\J	.
4G#X 4EE/	8bnL 8e 8d\	.
.	8ee\J	.
=24	=24	=24
.	32qqbn/	.
4AA 4AAA/	8.aL 8.e 8.c\	.
.	16g#X\Jk	.
4c 4E\	4a\	.
4r	4eee\	.
!!LO:LB:g=original
=25!|:	=25!|:	=25!|:
4c 4E 4AA\	4aaa: 4eee: 4aa:\	pp
*clefG2	*	*
!	!LO:TX:a:t=2 razy	!
.	32qqff/	.
4cc 4e\	8.ee\L	.
.	16dd#X\Jk	.
4a 4c\	4ee\	.
*clefF4	*	*
=26:|!	=26:|!	=26:|!
4E 4AA\	8bb-L 8ee 8b-\	.
.	8aa\J	.
4c#X 4G\	8ggL 8b-\	.
.	8ff\J	.
4g 4c#\	8eeL 8b-\	.
.	8ff\J	.
=27	=27	=27
.	32qqee/	.
4F 4DD/	8.ddL 8.a\	.
.	16cc#X\Jk	.
4d 4F\	4dd\	.
4f 4d\	4dd 4a\	.
=28	=28	=28
4c 4E 4AA\	4aaa: 4eee: 4aa:\	.
*clefG2	*	*
.	32qqff/	.
4cc 4e\	8.ee\L	.
.	16dd#X\Jk	.
4a 4c\	4ee\	.
*clefF4	*	*
=29	=29	=29
4c 4E 4AA\	4aaa: 4eee: 4aa:\	.
*clefG2	*	*
.	32qqff/	.
4cc 4e\	8.ee\L	.
.	16dd#X\Jk	.
4a 4c\	4ee\	.
*clefF4	*	*
=30	=30	=30
4G 4AA\	8bb-L 8ee 8b-\	.
.	8aa\J	.
4c#X 4G\	8ggL 8b-\	.
.	8ff\J	.
4g 4c#\	8eeL 8b-\	.
.	8aaJ 8a\	.
=31	=31	=31
.	32qqee/	.
4F 4DD/	8.ddL 8.a\	.
.	16cc#X\Jk	.
2f 2d 2F\	2dd\	.
=32||	=32||	=32||
!	!LO:TX:b:i:t=dolce	!
4A 4C 4FF\	4a\	.
4a 4c\	4ff 4cc\	.
4b- 4d\	4ff 4dd\	.
!!LO:LB:g=original
=33	=33	=33
!	!LO:N:vis=8	!
4a 4c\	8.ffL 8.ccM</	.
.	16bn/Jk	.
4a 4c\	4ff 4cc/	.
4f 4A\	4a/	.
=34	=34	=34
4F 4AA 4DD/	4f/	.
4f 4A\	4dd 4a/	.
4g 4B-\	4dd 4b-/	.
=35	=35	=35
4f 4A\	8.ddL 8.am</	.
.	16g#X/Jk	.
4f 4A\	4dd 4a/	.
4d 4F\	4f/	.
=36	=36	=36
4BB-\	8.gM\L	.
.	16f#X\Jk	.
4f 4d 4G\	8g\L	<
.	8a\J	.
4e 4B- 4G 4C\	8b-\L	.
.	8bn\J	.
=37	=37	=37
4AA\	8bn\L	.
.	8cc\J	.
4f 4c 4F;\	4.ff;\	[
4r	.	.
.	8g 8f\	.
=38	=38	=38
4BB-\	4.ff 4.dd-X\	p
4f 4d-X 4G 4F\	.	.
.	8g 8f\	<
4e 4B- 4G 4C\	8eeL 8cc\	.
.	8e\J	.
=39	=39	=39
4A 4C 4FF\	8.ffL 8.cc 8.fM</	.
.	16e/Jk	.
8a 8c\	8f/	.
8r	8r	[
4r	(4c/	.
=40	=40	=40
4A 4C 4FF\	8a/)	ff
.	8r	.
4a 4c\	4ff 4cc\	.
4b- 4d\	4ff 4dd\	.
=41	=41	=41
4FFF/	8.ffL 8.ccM</	.
.	16bn/Jk	.
4a 4c\	4ff 4cc\	.
!	!LO:TX:a:t=P:problem=brak początku łuku	!
4f 4A\	(4a/	.
!!LO:LB:g=original
=42	=42	=42
4F 4AA 4DD\	8f'/)	.
.	8r	.
4f 4A\	4dd 4a/	.
4g 4B-\	4dd 4b-/	.
=43	=43	=43
4DDD/	8.ddL 8.am</	.
.	16g#X/Jk	.
4f 4A\	4dd 4a/	.
4d 4F\	4f/	.
=44	=44	=44
4BB-\	8.gM\L	<
.	16f#X\Jk	.
4f 4d 4G\	8g\L	.
.	8a\J	.
4e 4B- 4G 4C\	8b-\L	.
.	8bn\J	.
=45	=45	=45
4AA\	8bn\L	.
.	8cc\J	.
!	!LO:N:vis=4	!
4f 4c 4F;\	4.aa;\	.
4r	.	[
.	8g 8f\	.
=46	=46	=46
4BBB-/	4.ff 4.dd-X\	>
4d-X 4G 4F 4BB-\	.	.
.	8g 8f\	.
4e 4B- 4E 4C\	8ccL 8g\	.
.	8e\J	.
=47	=47	=47
4A 4C 4FF\	8.ccL 8.fM</	.
.	16e/Jk	.
4c 4A\	8f/	.
.	8r	]
4r	4c/	.
=48||	=48||	=48||
*k[b-e-a-d-]	*k[b-e-a-d-]	*
4FF\	8a-L 8f/	p
.	8b-J 8g/	.
4c 4A-\	4.cc 4.a-/	.
4F\	.	.
.	8cc 8a-/	.
=49	=49	=49
4BBB-\	(8dd-L 8b-\	.
.	16ffJk 16dd-'\)	.
.	16r	.
4d- 4B-\	4.dd- 4.b-\	.
4F\	.	.
.	8cc 8a-\	.
!!LO:PB:g=original
=50	=50	=50
4EE-/	8ccL 8a-\	.
.	8b-J 8g\	.
4e- 4d-\	8b-L 8g\	.
.	8ccJ 8a-\	.
4E-\	8dd-L 8b-\	.
.	8ee-J 8g\	.
=51	=51	=51
4AA-\	2cc 2a-\	.
4c\	.	.
4En\	4c/	.
=52	=52	=52
4FF\	8a-L 8f\	.
.	8b-J 8g\	.
4c 4A-\	4.cc 4.a-\	.
4C\	.	.
.	8cc 8a-\	.
=53	=53	=53
4DD-/	(8b-L 8g\	.
.	16dd-Jk 16b-'\)	.
.	16r	.
4B- 4G\	4.b- 4.g\	.
4Bn\	.	.
.	8a- 8f\	.
=54	=54	=54
4CC/	8gL 8enm\	.
.	8f#XJ 8d#X\	<
4c 4G\	8gL 8e\	.
.	8cc\J	.
4d- 4G\	8bnL 8fn\	.
.	8gg\J	.
=55	=55	=55
4C\	2ccc 2gg 2cc\	.
*clefG2	*	*
4een 4g 4en\	.	[
4r	4cc\	.
!LO:CL:ed	!	!
*clefF4	*	*
=56	=56	=56
4FF\	8a-L 8f\	p
.	8b-J 8g\	.
4c 4A-\	4.cc 4.a-\	.
4F\	.	.
.	8cc 8a-\	.
=57	=57	=57
4BBB-/	(8dd-L 8b-\	.
.	16ffJk 16dd-'\)	.
.	16r	.
4d- 4B-\	4.dd- 4.b-\	.
4F\	.	.
.	8cc 8a-\	.
!!LO:LB:g=original
=58	=58	=58
4CC/	8ccL 8a-\	.
.	8b-J 8g\	.
4c 4B-\	8b-L 8gm\	.
.	8a-J 8f\	.
4C\	8gL 8en\	.
.	8ccJ 8c\	.
=59	=59	=59
4FF\	2a- 2f\	.
4A- 4F\	.	.
4A- 4C\	4g 4en\	.
=60	=60	=60
4A- 4D-\	8fL 8d-\	pp
.	8gJ 8en\	.
4A- 4D-\	4a- 4f\	.
4A- 4C\	8a-L 8f\	.
.	8b-J 8g\	.
=61	=61	=61
4A- 4D-\	8a-L 8f\	.
.	8dd-J 8f\	.
4A- 4D-\	4a- 4f\	.
4A- 4AA-\	8a-L 8f\	.
.	8gJ 8en\	.
=62	=62	=62
8A-L 8D-\	8fL 8d-\	.
8A-J 8AA-\	8fJ 8c\	.
4A- 4D-\	4f 4d-\	.
4A- 4C\	4g 4en\	.
=63	=63	=63
4A- 4D-\	2f 2d-/	.
4A- 4D-\	.	.
4A- 4AA-\	4f 4c/	.
=64	=64	=64
!	!LO:TX:b:i:t=dim.-est into-:ext=cd:problem=dynamics with extention lines	!LO:HP:t=dim.-est into-
4A- 4D-\	8fL 8d-\	>
.	8gJ 8en\	.
4A- 4D-\	4a- 4f\	.
4A- 4C\	8a-L 8f\	.
.	8b-J 8g\	.
=65	=65	=65
4A- 4D-\	8a-L 8f\	.
.	8dd-J 8f\	.
4A- 4D-\	4a- 4f\	.
4A- 4AA-\	8a-L 8f\	.
.	8gJ 8en\	.
!!LO:LB:g=original
=66	=66	=66
8A-L 8D-\	8fL 8d-/	.
8A-J 8AA-\	8fJ 8c/	.
4A- 4D-\	4f 4d-/	.
4A- 4C\	4g 4en/	.
=67	=67	=67
4A- 4D-\	2f 2d-/	.
4A- 4AA-\	.	.
4A- 4C\	4g 4en/	.
=68	=68	=68
4A- 4D-\	4f 4d-/	.
4A- 4AA-\	4g 4en/	.
4A- 4D-\	4f 4d-/	.
=69	=69	=69
4A- 4C\	4g 4en/	.
4A- 4D-\	4f 4d-/	.
4A- 4D-\	4f 4Bn/	]]
=70||	=70||	=70||
*k[b-enandn]	*k[b-enandn]	*
4A 4C\	4f 4c/	pp
4a 4c\	4ff 4cc\	.
4b- 4d\	4ff 4dd\	.
=71	=71	=71
4a 4c\	8.ffL 8.ccM</	.
.	16bn/Jk	.
4a 4c\	4ff 4cc/	.
4f 4A\	4a/	.
=72	=72	=72
4AA 4DD/	4f/	.
4f 4A\	4dd 4a\	.
4g 4B-\	4dd 4b-\	.
=73	=73	=73
4f 4A\	8.ddL 8.am</	.
.	16g#X/Jk	.
4f 4A\	4dd 4a/	.
4d 4F\	4f/	.
=74	=74	=74
4BB-\	8gM</L	.
.	8f#X/J	.
4f 4d 4G\	8g/L	.
.	8a/J	.
4e 4B- 4G 4C\	8b-\L	.
.	8bn\J	.
!!LO:LB:g=original
=75	=75	=75
4AA\	8bn\L	.
!	!	!LO:DY:t=sempre pp.
.	8cc\J	p
!	!LO:N:vis=4	!
4f 4c 4F\	4.ff;\	.
4r	.	.
.	8g 8f\	.
=76	=76	=76
4BB-\	4.ff 4.dd-X\	.
4f 4d-X 4G 4F\	.	.
.	8g 8f\	.
4e 4B- 4G 4C\	8eeL 8cc\	.
.	8e\J	.
=77	=77	=77
4A 4C 4FF\	8.ffL 8.cc 8.fM</	.
.	16e/Jk	.
4a 4c\	8f/	.
.	8r	.
4r	(<4c/	.
=78	=78	=78
4A 4C 4FF\	8a'\)	ff
.	8r	.
!	!LO:TX:b:i:t=con tutta forza.	!
4a 4c\	4ff 4cc\	.
4b- 4d\	4ff 4dd\	.
=79	=79	=79
4FFF/	8.ffL 8.ccM</	.
.	16bn/Jk	.
4a 4c\	4ff 4cc/	.
4f 4A\	(4a/	.
=80	=80	=80
4F 4AA 4DD\	8f'/)	.
.	8r	.
4f 4A\	4dd 4a\	.
4g 4B-\	4dd 4b-\	.
=81	=81	=81
4DDD/	8.ddL 8.am</	.
.	16g#X/Jk	.
4f 4A\	4dd 4a/	.
4d 4F\	4f/	.
=82	=82	=82
!	!LO:N:vis=8	!
4BB-\	8.gM</L	.
.	16f#X/Jk	.
4f 4d 4G\	8g/L	.
.	8a/J	.
4e 4B- 4G 4C\	8b-/L	.
.	8bn/J	.
!!LO:LB:g=original
=83	=83	=83
4AA\	8bn\L	.
.	8cc\J	.
!	!LO:N:vis=4	!
4f 4c 4F;\	4.aa;\	.
4r	.	.
.	8g 8f\	.
=84	=84	=84
4BBB-/	4.ff 4.dd-X\	p
4d-X 4G 4F 4BB-\	.	.
.	8g 8f\	.
4e 4B- 4E 4C\	8ccL 8g\	.
.	8e\J	.
=85	=85	=85
!	!LO:N:vis=8	!
4A 4C 4FF\	8.ccL 8.fM</	.
.	16e/Jk	.
!LO:TX:a:t=[segno]:problem=znak segno na kresce taktowej	!LO:TX:a:t=[segno]:problem=znak segno na kresce taktowej	!
!	!LO:TX:b:t=Fine.	!
2c 2A;\	2cc 2f;</	.
==	==	==
*-	*-	*-
!!!system-decoration: {(s1,s2)}
!!!RDF**kern: < = below
!!!RDF**dynam: p = "p."
!!!RDF**dynam: pp = "pp."
!!!RDF**dynam: f = "f."
!!!RDF**dynam: ff = "ff."
!!!ENC: Marta Lawrence
!!!END: 2021-05-20
!!!ENC: Krzysztof Stępień
!!!END: 2021-04-29
!!!YEC: Copyright 2022 Narodowy Instytut Fryderyka Chopina (https://polishscores.org)
!!!YEM: License CC-BY-4.0 (https://creativecommons.org/licenses/by/4.0)
